X: 29947
T: O, She's Comical
R: reel
M: 4/4
K: Amixolydian
d|ceeA g2 fa|eAed cAAd|ceeA g2 fe|dBcA BGGd|
ceeA g2 fg|aAed cAAB|d2 fd ceac|Bdgd BGG||
B|eAed c2 Ac|eAfe cAAc|fAed c2 Ac|dBcA BGGB|
eAed c2 Ag|faeA cAAB|d2 fd ceac|Bdgd BGG||
B|A2 a2 ge a2|A2 a2 cAAB|A2 a2 ge g2|dBcA BGGB|
A2 a2 ge a2|AaeA cAAB|d2 fd ceac|Bdgd BGG||
g|faea c2 Ag|faeA cAAg|faea c2 Ac|Bcdc BGGg|
faea ceAg|faeA cAAB|d2 fd ceac|Bdgd BGG||

